assets/ios/swift/Icons.xcassets/chatSolid.imageset/chatSolid.svg

<svg width="24" height="24" viewBox="0 0 24 24" fill="none" xmlns="http://www.w3.org/2000/svg">
<path d="M2.95002 16.3L1.50002 21.25C1.38335 21.6333 1.46668 21.9667 1.75002 22.25C2.03335 22.5333 2.36668 22.6167 2.75002 22.5L7.70002 21.05C8.38335 21.3667 9.08335 21.6042 9.80002 21.7625C10.5167 21.9208 11.25 22 12 22C13.3833 22 14.6833 21.7375 15.9 21.2125C17.1167 20.6875 18.175 19.975 19.075 19.075C19.975 18.175 20.6875 17.1167 21.2125 15.9C21.7375 14.6833 22 13.3833 22 12C22 10.6167 21.7375 9.31667 21.2125 8.1C20.6875 6.88333 19.975 5.825 19.075 4.925C18.175 4.025 17.1167 3.3125 15.9 2.7875C14.6833 2.2625 13.3833 2 12 2C10.6167 2 9.31668 2.2625 8.10002 2.7875C6.88335 3.3125 5.82502 4.025 4.92502 4.925C4.02502 5.825 3.31252 6.88333 2.78752 8.1C2.26252 9.31667 2.00002 10.6167 2.00002 12C2.00002 12.75 2.07918 13.4833 2.23752 14.2C2.39585 14.9167 2.63335 15.6167 2.95002 16.3Z" fill="black"/>
</svg>

<svg xmlns="http://www.w3.org/2000/svg" width="24" height="24" fill="black" viewBox="0 0 24 24">
  <path d="M2.95 16.3 1.5 21.25a.936.936 0 0 0 .25 1 .936.936 0 0 0 1 .25l4.95-1.45a10.23 10.23 0 0 0 2.1.712c.717.159 1.45.238 2.2.238a9.738 9.738 0 0 0 3.9-.788 10.098 10.098 0 0 0 3.175-2.137c.9-.9 1.613-1.958 2.137-3.175A9.738 9.738 0 0 0 22 12a9.738 9.738 0 0 0-.788-3.9 10.099 10.099 0 0 0-2.137-3.175c-.9-.9-1.958-1.612-3.175-2.137A9.738 9.738 0 0 0 12 2a9.738 9.738 0 0 0-3.9.788 10.099 10.099 0 0 0-3.175 2.137c-.9.9-1.612 1.958-2.137 3.175A9.738 9.738 0 0 0 2 12a10.179 10.179 0 0 0 .95 4.3Z"/>
</svg>
